icons/gitboard.svg

<?xml version="1.0" encoding="UTF-8" standalone="no"?>
<svg width="256px" height="249px" viewBox="0 0 256 249" version="1.1" xmlns="http://www.w3.org/2000/svg" xmlns:xlink="http://www.w3.org/1999/xlink" preserveAspectRatio="xMidYMid">
	<g>
		<path d="M208.722894,153.428763 L196.767407,175.347157 L157.413925,203.741441 L128.023351,205.734022 L128.023351,133.502949 L210.21733,133.502949 L208.722894,153.428763 Z" fill="#F39800"></path>
		<path d="M256,124.256606 C256,193.121713 198.612086,248.513212 128.249513,248.513212 C57.8869396,248.513212 0,193.121713 0,124.256606 C0,55.3914992 57.3879142,0 127.750487,0 C198.11306,0 256,55.8905217 256,124.256606 L256,124.256606 Z M128.249513,8.48338275 C62.3781676,8.48338275 9.48148148,60.3817243 9.48148148,124.256606 C9.48148148,188.131488 62.877193,240.02983 128.249513,240.02983 C193.621832,240.02983 247.017544,188.131488 247.017544,124.256606 C247.017544,60.3817243 193.621832,8.48338275 128.249513,8.48338275 L128.249513,8.48338275 Z M212.08577,129.246831 L132.740741,129.246831 L132.740741,76.3504448 C132.740741,76.3504448 132.241715,72.3582647 128.249513,72.3582647 C124.25731,72.3582647 123.758285,76.3504448 123.758285,76.3504448 L123.758285,203.601186 C81.3411306,201.106074 46.4093567,166.67352 46.4093567,124.256606 C46.4093567,81.8396925 81.8401559,44.4130038 129.247563,44.4130038 C151.204678,44.4130038 165.177388,51.8983416 176.155945,59.3836793 C184.639376,64.8729269 193.122807,73.8553322 197.11501,80.3426249 C197.614035,80.8416474 200.109162,83.33676 203.103314,81.3406699 C206.596491,79.3445799 204.60039,75.8514223 204.60039,75.3523998 C188.132554,51.399319 160.187135,35.4305986 128.748538,35.4305986 C78.8460039,35.4305986 37.9259259,73.8553322 37.9259259,124.256606 C37.9259259,174.158858 78.3469786,213.082614 128.748538,213.082614 C165.177388,213.082614 197.11501,192.123668 212.08577,160.68525 C215.578947,153.199912 217.076023,146.213597 219.072125,137.730214 C219.57115,133.239012 217.575049,129.246831 212.08577,129.246831 L212.08577,129.246831 Z M207.594542,144.716529 C200.608187,168.170588 187.134503,181.145173 177.153996,188.131488 C166.175439,195.616826 152.202729,203.102164 132.241715,204.100209 L132.241715,137.730214 L209.091618,137.730214 C209.091618,137.730214 208.093567,142.720439 207.594542,144.716529 L207.594542,144.716529 Z" fill="#3E3A39"></path>
	</g>
</svg>

<svg xmlns="http://www.w3.org/2000/svg" viewBox="0 0 256 248.513">
  <path fill="#f39800" d="m208.723 153.429-11.956 21.918-39.353 28.394-29.39 1.993v-72.231h82.193z"/>
  <path fill="#3e3a39" d="M256 124.257c0 68.865-57.388 124.256-127.75 124.256C57.887 248.513 0 193.122 0 124.257 0 55.39 57.388 0 127.75 0 198.113 0 256 55.89 256 124.257zM128.25 8.483C62.378 8.483 9.48 60.382 9.48 124.257c0 63.874 53.396 115.773 118.769 115.773 65.372 0 118.768-51.899 118.768-115.773 0-63.875-53.396-115.774-118.768-115.774zm83.836 120.764H132.74V76.35s-.5-3.992-4.491-3.992c-3.993 0-4.492 3.992-4.492 3.992v127.251c-42.417-2.495-77.349-36.927-77.349-79.344 0-42.417 35.431-79.844 82.839-79.844 21.957 0 35.93 7.485 46.908 14.97 8.483 5.49 16.967 14.472 20.959 20.96.499.499 2.994 2.994 5.988.998 3.493-1.996 1.497-5.49 1.497-5.989-16.467-23.953-44.413-39.921-75.851-39.921-49.903 0-90.823 38.424-90.823 88.826 0 49.902 40.421 88.826 90.823 88.826 36.428 0 68.366-20.96 83.337-52.398 3.493-7.485 4.99-14.471 6.986-22.955.5-4.491-1.497-8.483-6.986-8.483zm-4.491 15.47c-6.987 23.454-20.46 36.428-30.441 43.414-10.979 7.486-24.951 14.971-44.912 15.97v-66.37h76.85s-.998 4.99-1.497 6.986z"/>
</svg>
